X:30b
T:GB/7d/30B Oyster Girl-0
%%VWML:GB-7d-30B-0
F:http://www.vwml.org/record/GB/7d/30B
T:Escrick Sword Dance Tunes 2 of 2
C:Transcribed by Simon Furey and Lewis Jones
L:1/8
Q:1/4=144
M:6/8
I:linebreak $
K:G
d | ded B2 G | A2 F D3 | GFG BAG | d2 B A2 d | ded B2 d |$ g2 e c2 e | edc dcA | G3- G3 || BBB B2 A | B2 c d3 |$ AAA A2 G | A2 B c3 | BBB B2 A | B2 c d2 g | fed cBA | G3 g3 |]

